X:1
T:Title
%%score { ( 1 3 ) | ( 2 4 ) }
L:1/8
M:4/4
K:A
V:1 treble nm="Grand Piano"
V:3 treble 
V:2 bass 
V:4 bass 
V:1
 z4 z2[Q:1/4=100] E2 | E->[EG] E->[EB] [Ec]2 [CEA]2 | [Ac]>B c>d [Ece]2 [EAc]2 | %3
 [DAd]2 [EAc]2 [B,GB]2 [B,FA]2 | [B,GB]6 E2 | G>F G>A [B,GB]2 [B,EG]2 | %6
 [GB]>[F^A] [=GB]>[=Ac] [Bd]2 [df]2 | [Ece]3 [FBd] [EAc]2 [DGB]2 | [CEA]6 [Fd]2 | %9
 [Ec]3 [DFB] [CEA]2 [B,EG]2 |[M:3/4] [CEA]6 |] %11
V:2
 z4 z2 E,2 | z z/ B,/ z z/ D/ [A,,A,]2 A,,2 | z z/ G/ A>B A,2[K:bass] G,2 | F,2 E,2 E,2 ^D,2 | %4
 E,6 [E,G,]2 | E2 E2 z4 | [E,B,]2 [E,B,]2 [E,B,]2 [E,E]2 | A,3 D, E,2 E,2 | A,6 [D,A,]2 | %9
 [E,A,]3 D, E,2 E,2 |[M:3/4] A,,6 |] %11
V:3
 x8 | [CA]2 [CA]2 z4 | x8 | x8 | x8 | x8 | x8 | x8 | x8 | x8 |[M:3/4] x6 |] %11
V:4
 x8 | A,,2 A,,2 z4 | [A,E]2 [A,E]2 z4[K:bass] | x8 | x8 | %5
 [E,B,]->[E,B,^D] [E,B,]->[E,B,F] E,2 E,2 | x8 | x8 | x8 | x8 |[M:3/4] x6 |] %11

